src/assets/duotone/Okb.svg

<?xml version="1.0" encoding="UTF-8"?>
<svg width="24" height="24" viewBox="0 0 24 24" xmlns="http://www.w3.org/2000/svg">
 <path d="m22 12c0 2.76-2.24 5-5 5 0-2.76-2.24-5-5-5 2.76 0 5-2.24 5-5 2.76 0 5 2.24 5 5z" opacity=".4"/>
 <path d="m17 17c-2.76 0-5-2.24-5-5 2.76 0 5 2.24 5 5z"/>
 <path d="m17 17c0 2.76-2.24 5-5 5s-5-2.24-5-5c2.76 0 5-2.24 5-5 0 2.76 2.24 5 5 5z" opacity=".4"/>
 <path d="m17 7c0 2.76-2.24 5-5 5 0-2.76 2.24-5 5-5z"/>
 <path d="m17 7c-2.76 0-5 2.24-5 5 0-2.76-2.24-5-5-5 0-2.76 2.24-5 5-5s5 2.24 5 5z" opacity=".4"/>
 <path d="m12 12c0 2.76-2.24 5-5 5 0-2.76 2.24-5 5-5z"/>
 <path d="m12 12c-2.76 0-5-2.24-5-5 2.76 0 5 2.24 5 5z"/>
 <path d="m12 12c-2.76 0-5 2.24-5 5-2.76 0-5-2.24-5-5s2.24-5 5-5c0 2.76 2.24 5 5 5z" opacity=".4"/>
</svg>

<svg width="24" height="24" viewBox="0 0 24 24"  xmlns="http://www.w3.org/2000/svg">
<path opacity="0.4" d="M22 12C22 14.76 19.76 17 17 17C17 14.24 14.76 12 12 12C14.76 12 17 9.76 17 7C19.76 7 22 9.24 22 12Z" />
<path d="M17 17C14.24 17 12 14.76 12 12C14.76 12 17 14.24 17 17Z" />
<path opacity="0.4" d="M17 17C17 19.76 14.76 22 12 22C9.24 22 7 19.76 7 17C9.76 17 12 14.76 12 12C12 14.76 14.24 17 17 17Z" />
<path d="M17 7C17 9.76 14.76 12 12 12C12 9.24 14.24 7 17 7Z" />
<path opacity="0.4" d="M17 7C14.24 7 12 9.24 12 12C12 9.24 9.76 7 7 7C7 4.24 9.24 2 12 2C14.76 2 17 4.24 17 7Z" />
<path d="M12 12C12 14.76 9.76 17 7 17C7 14.24 9.24 12 12 12Z" />
<path d="M12 12C9.24 12 7 9.76 7 7C9.76 7 12 9.24 12 12Z" />
<path opacity="0.4" d="M12 12C9.24 12 7 14.24 7 17C4.24 17 2 14.76 2 12C2 9.24 4.24 7 7 7C7 9.76 9.24 12 12 12Z" />
</svg>
